; G-Code generated by Simplify3D(R) Version 5.1.2
; Apr 6, 2024 at 10:25:13 AM
; Settings Summary
;   processName,Process 1
;   autoConfigureMaterial,PLA
;   autoConfigureQuality,Medium
;   targetModels,Epic Amberis (18)
;   profileName,Creality K1 Max Pla 20%
;   profileVersion,2024-04-06 10:24:18
;   app,S3D-Software 5.1.2
;   technology,fff
;   baseProfile,Creality K1 Max
;   extruder,Primary Extruder
;   toolheadNumber,0
;   nozzleDiameter,0.40000
;   extrusionMultiplier,1.00000
;   extrusionWidthMode,manual
;   extrusionWidth,0.40000
;   useRetraction,1
;   retractDistance,0.50000
;   extraRestartDistance,0.00000
;   retractVerticalLift,0.50000
;   retractSpeed,2400.00000
;   useCoasting,1
;   coastingDistance,0.20000
;   useWiping,1
;   wipingDistance,5.00000
;   speedMaxFlowRate,1380.00000
;   toolheadOffsetX,0.00000
;   toolheadOffsetY,0.00000
;   filamentDiameter,1.75000
;   filamentPricePerKilogram,25.00000
;   filamentDensity,1.25000
;   primaryExtruder,Primary Extruder
;   layerHeight,0.20000
;   topSolidLayers,3
;   bottomSolidLayers,3
;   outlinePerimeters,2
;   useVaseMode,0
;   useAdaptiveLayerHeights,0
;   minAdaptiveLayerHeight,0.10000
;   maxAdaptiveLayerHeight,0.30000
;   adaptiveSmoothingLevel,5
;   horizontalOuterCompensation,0.00000
;   horizontalInnerCompensation,0.00000
;   firstLayerUnits,absolute
;   firstLayerHeightPercentage,150
;   firstLayerWidthPercentage,100
;   firstLayerSpeedPercentage,15
;   firstLayerHeightAbsolute,0.30000
;   firstLayerWidthAbsolute,0.40000
;   firstLayerSpeedAbsolute,1500.00000
;   startPointStrategy,closest
;   alignStartPointsX,0.00000
;   alignStartPointsY,0.00000
;   restrictStartPoints,1
;   perimeterPrintingOrder,inside_out
;   islandPrintingOrder,closest
;   printInfillBeforePerimeters,0
;   useSkirt,1
;   skirtExtruder,Primary Extruder
;   skirtLayers,1
;   skirtOffset,4.00000
;   skirtOutlines,2
;   useRaft,0
;   raftExtruder,Primary Extruder
;   raftBaseLayers,2
;   raftTopLayers,3
;   raftOffset,3.00000
;   raftSeparationDistance,0.14000
;   raftSpeedUnits,percentage
;   raftSpeedPercentage,30
;   raftSpeedAbsolute,600.00000
;   usePrimePillar,0
;   primePillarExtruder,All Extruders
;   primePillarWidth,12.00000
;   primePillarLocation,north_west
;   primePillarSpeedPercentage,100
;   primePillarInfillPercentage,100
;   autoStopPrimePillar,1
;   primePillarLayersAfterAutoStop,0
;   useOozeShield,0
;   oozeShieldExtruder,All Extruders
;   oozeShieldOffset,2.00000
;   oozeShieldOutlines,1
;   oozeShieldSidewallShape,waterfall
;   oozeShieldSidewallAngle,30
;   oozeShieldSpeedPercentage,100
;   autoStopOozeShield,1
;   oozeShieldLayersAfterAutoStop,0
;   sparseInfillExtruder,Primary Extruder
;   sparseInfillPattern,rectilinear
;   sparseInfillRotation,0
;   sparseInfillPercentage,20
;   sparseInfillExtrusionWidthPercentage,100
;   sparseInfillCombinedLayers,1
;   denseInfillLayers,0
;   denseInfillPercentage,50
;   infillOutlineOverlapPercentage,30
;   minInfillLength,5.00000
;   externalInfillPattern,rectilinear
;   externalInfillRotation,0
;   solidInfillThresholdArea,25.00000
;   solidInfillExtraExpansion,0.00000
;   useMonotonic,0
;   useDiaphragm,0
;   diaphragmSolidLayers,3
;   diaphragmSpacingLayers,20
;   topLayerExtraExpansion,1.00000
;   topLayerExtrusionModifier,100
;   overrideFanSpeedForTopLayer,0
;   topLayerFanSpeedPercentage,100
;   useIroning,0
;   ironingOutlineOffsetPercentage,50
;   ironingExtrusionWidthPercentage,25
;   ironingExtrusionModifier,15
;   ironingSpeedModifier,30
;   sparseSupportExtruder,Primary Extruder
;   sparseSupportInfillPattern,aligned
;   sparseSupportInfillRotation,0
;   sparseSupportInfillPercentage,20
;   sparseSupportOutlines,0
;   sparseSupportCombinedLayers,1
;   upperDenseSupportLayers,0
;   lowerDenseSupportLayers,0
;   denseSupportExtruder,Primary Extruder
;   denseSupportInfillPercentage,70
;   denseSupportExtraExpansion,0.00000
;   baseSupportLayers,0
;   supportInflationDistance,0.00000
;   supportHorizontalPartOffset,0.30000
;   supportUpperSeparationLayers,1
;   supportLowerSeparationLayers,1
;   temperatureController,Primary Extruder
;   enableTemperatureController,1
;   temperatureNumber,0
;   temperatureType,extruder
;   stabilizeAtStartup,1
;   temperatureSetpoints,1|220
;   useIdleCooldown,0
;   cooldownTemperature,150
;   cooldownRequiredIdleTime,180
;   cooldownReheatTime,60
;   temperatureController,Heated Build Platform
;   enableTemperatureController,1
;   temperatureNumber,0
;   temperatureType,platform
;   stabilizeAtStartup,1
;   temperatureSetpoints,1|60
;   useIdleCooldown,0
;   cooldownTemperature,150
;   cooldownRequiredIdleTime,180
;   cooldownReheatTime,60
;   fan,Cooling Fan
;   fanNumber,0
;   fanType,extruder
;   blipFanToFullPower,0
;   fanSetpoints,1|0,2|100
;   increaseFanForQuickLayers,0
;   fanMaxQuickLayerTime,45.00000
;   fanMinQuickLayerTime,15.00000
;   maxQuickLayerFanSpeedPercentage,100
;   fan,Side Fan
;   fanNumber,2
;   fanType,environmental
;   blipFanToFullPower,0
;   fanSetpoints,1|0
;   increaseFanForQuickLayers,1
;   fanMaxQuickLayerTime,45.00000
;   fanMinQuickLayerTime,15.00000
;   maxQuickLayerFanSpeedPercentage,100
;   fan,Exhaust Fan
;   fanNumber,1
;   fanType,environmental
;   blipFanToFullPower,0
;   fanSetpoints,1|50
;   increaseFanForQuickLayers,1
;   fanMaxQuickLayerTime,45.00000
;   fanMinQuickLayerTime,15.00000
;   maxQuickLayerFanSpeedPercentage,100
;   defaultPrintSpeed,18000.00000
;   outerPerimeterSpeedPercentage,70
;   innerPerimeterSpeedPercentage,80
;   topLayerSpeedPercentage,50
;   solidInfillSpeedPercentage,80
;   sparseSupportSpeedPercentage,80
;   denseSupportSpeedPercentage,70
;   travelSpeedXY,30000.00000
;   travelSpeedZ,15000.00000
;   reduceSpeedForQuickLayers,1
;   speedMaxQuickLayerTime,5.00000
;   minQuickLayerSpeedPercentage,70
;   reduceSpeedForShortPerimeters,1
;   speedMaxShortPerimeterLength,20.00000
;   minShortPerimeterSpeedPercentage,70
;   reduceSpeedForMaxFlowRate,1
;   accelXY,12000.00000
;   accelZ,500.00000
;   accelE,5000.00000
;   jerkXY,600.00000
;   jerkZ,24.00000
;   jerkE,300.00000
;   exportFileFormat,gcode
;   useStickyCommands,1
;   use5D,1
;   relativeExtrusionDistances,0
;   allowExtruderAxisZeroing,1
;   independentExtruderAxes,0
;   includeM10123,1
;   includeThumbnailImages,1
;   thumbnailImageEncoding,standard
;   thumbnailImageSizes,32|32
;   x3gMachineProfile,r2
;   overrideStepsPerMillimeter,0
;   stepsPerMillimeterX,88.57319
;   stepsPerMillimeterY,88.57319
;   stepsPerMillimeterZ,400.00000
;   stepsPerMillimeterA,96.27520
;   stepsPerMillimeterB,96.27520
;   xyzFileFormatVersion,1
;   makerBotMachineProfile,replicator_5
;   makerBotModelExtruder,mk13
;   makerBotSupportExtruder,mk14_s
;   makerBotModelMaterial,pla
;   makerBotSupportMaterial,pva
;   globalOffsetX,0.00000
;   globalOffsetY,0.00000
;   globalOffsetZ,0.00000
;   applyToolheadOffsets,0
;   buildVolumeShape,rectangular
;   buildVolumeX,300.00000
;   buildVolumeY,300.00000
;   buildVolumeZ,300.00000
;   buildVolumeDiameter,200.00000
;   originOffsetX,0.00000
;   originOffsetY,0.00000
;   originOffsetZ,0.00000
;   homingDirectionX,min
;   homingDirectionY,min
;   homingDirectionZ,min
;   mirrorVisualX,0
;   mirrorVisualY,1
;   mirrorVisualZ,0
;   machineBackgroundModel,Creality_K1Max.stl
;   startingScript,";TIME:[total_print_time_sec].00|;Filament used:{EVAL ""[total_filament_used]/1000""}m|;Layer height: [current_layer_height]|START_PRINT EXTRUDER_TEMP=[extruder0_temperature] BED_TEMP=[platform0_temperature]"
;   preLayerChangeScript,
;   postLayerChangeScript,
;   preRetractionScript,
;   postRetractionScript,
;   preToolChangeScript,
;   postToolChangeScript,
;   processChangeScript,
;   endingScript,; end exclusion|G28 X0 ; home X axis|M106 S0 ; turn off cooling fan|M106 S0 P1 ; turn off side fan|M106 S0 P2 ; turn off side fan|M104 S0 ; turn off extruder|M140 S0 ; turn off build platform|G90|G1 Z280 F2500   |M84 ; disable motors
;   postProcessingScript,"{STRIP ""T0""}|""C:\Windows\py.exe c:\temp\preprocess_cancellation.py"" ""[output_dir]/[output_filename].gcode"""
;   useBridging,1
;   bridgingThresholdArea,50.00000
;   bridgingInfillExtraExpansion,0.00000
;   bridgingExtrusionModifier,100
;   bridgingSpeedModifier,100
;   overrideFanSpeedForBridging,1
;   bridgingFanSpeedPercentage,100
;   useFixedBridgingAngle,0
;   fixedBridgingAngle,0
;   applyBridgingToPerimeters,0
;   bridgingPerimeterExtraOverlap,0.00000
;   minBridgingPerimeterLength,10.00000
;   useToolChangeRetraction,0
;   toolChangeRetractDistance,12.00000
;   toolChangeExtraRestartDistance,-0.50000
;   toolChangeRetractSpeed,600.00000
;   toolChangePrimeOnFirstUse,0
;   toolChangeRetractAtEnd,0
;   externalThinWallType,perimeters_only
;   internalThinWallType,single_extrusions
;   thinWallAllowedOverlapPercentage,10
;   singleExtrusionMinLength,1.00000
;   singleExtrusionMinWidthPercentage,50
;   singleExtrusionMaxWidthPercentage,200
;   singleExtrusionEndpointExtensionDistance,0.20000
;   onlyRetractWhenCrossingOutlines,1
;   retractBetweenLayers,1
;   retractOnTopLayers,0
;   useRetractionMinTravel,0
;   retractionMinTravel,5.00000
;   useRetractionMinExtrusion,0
;   retractionMinExtrusion,3.00000
;   onlyVerticalLiftOnTopLayers,0
;   retractWhileWiping,0
;   wipingMode,outer_perimeter
;   avoidCrossingOutlines,0
;   maxMovementDetourFactor,3.00000
;   openLoopSlicingBehavior,heal
;   openLoopThickenWidth,0.50000
;   slicingRegionRepairMode,positive
G90
M82
M106 S0 P0
M106 S128 P1
M106 S0 P2
;TIME:1975.00
;Filament used:7.3592m
;Layer height: 0.3000
START_PRINT EXTRUDER_TEMP=220 BED_TEMP=60
; process Process 1
; layer 1, Z = 0.3000
M102
G92 E0.00000
G1 E-0.50000 F2400
M103
; feature skirt
; tool H0.3000 W0.400
G1 Z0.5000 F15000
G1 X131.277 Y106.517 F30000
G1 Z0.3000 F15000
M101
G92 E0.00000
G1 E0.50000 F2400
G92 E0.00000
G1 X132.522 Y105.076 E0.09501 F1500
G1 X132.947 Y104.693 E0.12355
G1 X134.516 Y103.596 E0.21906
G1 X134.963 Y103.352 E0.24446
G1 X136.769 Y102.612 E0.34186
G1 X137.178 Y102.487 E0.36320
G1 X139.487 Y102.032 E0.48061
G1 X141.741 Y101.900 E0.59321
G1 X150.117 Y101.900 E1.01113
G1 X152.373 Y102.032 E1.12384
G1 X154.680 Y102.487 E1.24116
G1 X155.087 Y102.611 E1.26241
G1 X156.897 Y103.352 E1.35997
G1 X157.347 Y103.598 E1.38557
G1 X158.912 Y104.695 E1.48092
G1 X159.333 Y105.074 E1.50918
G1 X160.580 Y106.515 E1.60423
G1 X160.895 Y106.985 E1.63249
G1 X161.759 Y108.696 E1.72809
G1 X161.934 Y109.161 E1.75287
G1 X162.423 Y111.062 E1.85082
G1 X162.489 Y111.467 E1.87132
G1 X162.641 Y113.604 E1.97817
G1 X162.641 Y122.537 E2.42386
G1 X163.411 Y122.537 E2.46228
G1 X164.302 Y123.429 E2.52519
G1 X169.602 Y123.429 E2.78958
G1 X172.296 Y126.124 E2.97970
G1 X172.296 Y134.854 E3.41527
G1 X169.602 Y137.549 E3.60539
G1 X162.641 Y137.549 E3.95269
G1 X162.641 Y162.977 E5.22128
G1 X163.682 Y162.977 E5.27326
G1 X164.053 Y163.348 E5.29943
G1 X169.336 Y163.348 E5.56300
G1 X172.031 Y166.042 E5.75312
G1 X172.031 Y174.773 E6.18870
G1 X169.336 Y177.468 E6.37882
G1 X162.641 Y177.468 E6.71286
G1 X162.641 Y186.396 E7.15831
G1 X162.489 Y188.533 E7.26516
G1 X162.423 Y188.938 E7.28566
G1 X161.934 Y190.839 E7.38360
G1 X161.759 Y191.304 E7.40839
G1 X160.895 Y193.015 E7.50399
G1 X160.580 Y193.485 E7.53225
G1 X159.333 Y194.926 E7.62729
G1 X158.912 Y195.305 E7.65556
G1 X157.347 Y196.403 E7.75094
G1 X156.895 Y196.649 E7.77662
G1 X155.086 Y197.388 E7.87412
G1 X154.683 Y197.511 E7.89513
G1 X152.678 Y197.927 E7.99729
G1 X150.119 Y198.100 E8.12524
G1 X141.741 Y198.100 E8.54325
G1 X139.487 Y197.968 E8.65589
G1 X137.177 Y197.512 E8.77334
G1 X136.771 Y197.388 E8.79454
G1 X134.965 Y196.649 E8.89189
G1 X134.516 Y196.405 E8.91736
G1 X132.947 Y195.307 E9.01290
G1 X132.522 Y194.924 E9.04145
G1 X131.277 Y193.483 E9.13646
G1 X130.964 Y193.016 E9.16451
G1 X130.100 Y191.306 E9.26011
G1 X129.924 Y190.838 E9.28504
G1 X129.436 Y188.937 E9.38297
G1 X129.370 Y188.534 E9.40334
G1 X129.217 Y186.397 E9.51021
G1 X129.217 Y113.603 E13.14192
G1 X129.370 Y111.466 E13.24880
G1 X129.436 Y111.063 E13.26916
G1 X129.924 Y109.162 E13.36709
G1 X130.100 Y108.694 E13.39202
G1 X130.964 Y106.984 E13.48762
G1 X131.277 Y106.517 E13.51568
M102
G92 E0.00000
G1 E-0.50000 F2400
M103
G1 Z0.8000 F15000
G1 X131.596 Y106.760 F30000
G1 Z0.3000 F15000
M101
G92 E0.00000
G1 E0.50000 F2400
G92 E0.00000
G1 X132.809 Y105.356 E0.09255 F1500
G1 X133.196 Y105.006 E0.11861
G1 X134.727 Y103.936 E0.21177
G1 X135.135 Y103.714 E0.23496
G1 X136.904 Y102.989 E0.33034
G1 X137.276 Y102.875 E0.34973
G1 X139.538 Y102.430 E0.46477
G1 X141.752 Y102.300 E0.57543
G1 X150.106 Y102.300 E0.99218
G1 X152.322 Y102.430 E1.10294
G1 X154.583 Y102.875 E1.21789
G1 X154.953 Y102.989 E1.23721
G1 X156.725 Y103.714 E1.33273
G1 X157.136 Y103.938 E1.35610
G1 X158.663 Y105.008 E1.44911
G1 X159.047 Y105.355 E1.47492
G1 X160.261 Y106.758 E1.56750
G1 X160.549 Y107.187 E1.59330
G1 X161.392 Y108.857 E1.68660
G1 X161.552 Y109.281 E1.70923
G1 X162.031 Y111.144 E1.80521
G1 X162.091 Y111.514 E1.82390
G1 X162.240 Y113.618 E1.92912
G1 X162.240 Y122.937 E2.39407
G1 X163.245 Y122.937 E2.44418
G1 X164.137 Y123.829 E2.50709
G1 X169.436 Y123.829 E2.77147
G1 X171.896 Y126.289 E2.94506
G1 X171.896 Y134.689 E3.36411
G1 X169.436 Y137.149 E3.53770
G1 X162.240 Y137.149 E3.89668
G1 X162.240 Y163.377 E5.20519
G1 X163.517 Y163.377 E5.26885
G1 X163.888 Y163.748 E5.29503
G1 X169.170 Y163.748 E5.55859
G1 X171.631 Y166.208 E5.73218
G1 X171.631 Y174.607 E6.15123
G1 X169.170 Y177.068 E6.32481
G1 X162.240 Y177.068 E6.67055
G1 X162.240 Y186.382 E7.13525
G1 X162.091 Y188.486 E7.24047
G1 X162.031 Y188.856 E7.25917
G1 X161.552 Y190.719 E7.35514
G1 X161.392 Y191.143 E7.37777
G1 X160.549 Y192.813 E7.47107
G1 X160.261 Y193.242 E7.49687
G1 X159.047 Y194.645 E7.58945
G1 X158.663 Y194.992 E7.61526
G1 X157.135 Y196.062 E7.70830
G1 X156.723 Y196.287 E7.73174
G1 X154.952 Y197.011 E7.82721
G1 X154.584 Y197.123 E7.84640
G1 X152.624 Y197.530 E7.94627
G1 X150.106 Y197.700 E8.07218
G1 X141.752 Y197.700 E8.48893
G1 X139.537 Y197.570 E8.59962
G1 X137.275 Y197.123 E8.71470
G1 X136.905 Y197.010 E8.73397
G1 X135.137 Y196.287 E8.82929
G1 X134.727 Y196.064 E8.85255
G1 X133.196 Y194.994 E8.94574
G1 X132.809 Y194.644 E8.97180
G1 X131.596 Y193.240 E9.06435
G1 X131.310 Y192.813 E9.08997
G1 X130.466 Y191.145 E9.18326
G1 X130.306 Y190.718 E9.20603
G1 X129.828 Y188.854 E9.30199
G1 X129.768 Y188.487 E9.32055
G1 X129.617 Y186.383 E9.42581
G1 X129.617 Y113.617 E13.05609
G1 X129.768 Y111.513 E13.16135
G1 X129.828 Y111.146 E13.17991
G1 X130.306 Y109.282 E13.27588
G1 X130.466 Y108.855 E13.29864
G1 X131.310 Y107.187 E13.39194
G1 X131.596 Y106.760 E13.41755
M102
G92 E0.00000
G1 E-0.50000 F2400
M103
; feature inner perimeter
G1 Z0.8000 F15000
G1 X135.445 Y109.647 F30000
G1 Z0.3000 F15000
M101
G92 E0.00000
G1 E0.50000 F2400
G92 E0.00000
G1 X136.222 Y108.748 E0.05930 F1500
G1 X137.232 Y108.042 E0.12078
G1 X138.492 Y107.525 E0.18876
G1 X140.021 Y107.209 E0.26662
G1 X141.833 Y107.100 E0.35722
G1 X150.024 Y107.100 E0.76587
G1 X151.839 Y107.209 E0.85657
G1 X153.366 Y107.525 E0.93434
G1 X154.628 Y108.042 E1.00239
G1 X155.635 Y108.748 E1.06376
G1 X156.414 Y109.648 E1.12313
G1 X156.976 Y110.759 E1.18527
G1 X157.322 Y112.106 E1.25466
G1 X157.441 Y113.717 E1.33523
G1 X157.441 Y186.283 E4.95556
G1 X157.322 Y187.894 E5.03613
G1 X156.976 Y189.241 E5.10552
G1 X156.414 Y190.352 E5.16766
G1 X155.635 Y191.252 E5.22703
G1 X154.628 Y191.958 E5.28838
G1 X153.366 Y192.474 E5.35643
G1 X151.839 Y192.791 E5.43422
G1 X150.024 Y192.900 E5.52491
